X: 629
T: Ragg
P: Longways for as many as will
%R: jig
B: "Caledonian Country Dances" printed by John Walsh for John Johnson, London
S: 1: CCDTB http://imslp.org/wiki/Caledonian_Country_Dances_with_a_Thorough_Bass_(Various) p.94
Z: 2013 John Chambers <jc:trillian.mit.edu>
M: 6/8
L: 1/8
K: G
% - - - - - - - - - - - - - - - - - - - - - - - - -
V: 1
g |\
f2A (Bc)A | (B/c/d)B G2g | f2A AcA | d3 g2g |\
f2A AcA | (B/c/d)B G2g | afd ge^c | d3 g2 :|
|: g |\
f2g afd | efg ge^c | f2g afd | f3 g3 |\
fga afd | efg ge^c | (f/g/)af (e/f/)ge | d3 g2 :|
% - - - - - - - - - - - - - - - - - - - - - - - - -
V: 2 clef=bass middle=d
z |\
d'3 d3 | g3 G3 | d3 D3 | B3 G3 |\
d3 D3 | g3 G3 | f3 e3 | d3 G2 :|\
|: z |\
d3 D3 | e3 E3 | d3 D3 | d3 G3 |\
d'3 d3 | e'3 e3 | d3 c3 | B3 G2 :|
% - - - - - - - - - - - - - - - - - - - - - - - - -
%%begintext align
%% Cross over down one Cu. and turn Hands, then down the next Cu. the same
%% Way & turn Hands. The Wo. turns the upper Man with one Hand, her
%% Partner with the other, the Man does the like at the same time, Only at
%% the last, Dancers turn with both Hands.
%%endtext

%%sep 1 1 500
%%sep 1 1 500
